X: 1
T: Glory, Glory (Since I Laid my Burden down)
M: 4/4
L: 1/4
R: Spiritual
K: D
A,D | "D" D3/2 D/2-D z | z F-F D | F2 F/2 z/2 z |
w: Glo-ry, Glo-ry_ hal-_ le-luh- jah
z F2 E | "G" D3/2 D/2-D2 |z A2 F | "D" D4 |
w: Since I lay my_ bur- den down.
z2 A, D | D2 D-F/2 z/2 | z F-F/2A/2-A | A2 (A/2F/2-F) |
w: Glo-ry Glo-ry_ hal-_le-_lu- jah_
z (B-B/2A/2) B | "A" A2 F2 | z2 E F | "D" D4| z4 |]
w:Since _ _ I lay my bur-den down.
